krita/pics/svg/dark_deletekeyframe.svg

<?xml version="1.0" encoding="UTF-8" standalone="no"?>
<!-- Created with Inkscape (http://www.inkscape.org/) -->

<svg
   xmlns:dc="http://purl.org/dc/elements/1.1/"
   xmlns:cc="http://creativecommons.org/ns#"
   xmlns:rdf="http://www.w3.org/1999/02/22-rdf-syntax-ns#"
   xmlns:svg="http://www.w3.org/2000/svg"
   xmlns="http://www.w3.org/2000/svg"
   xmlns:sodipodi="http://sodipodi.sourceforge.net/DTD/sodipodi-0.dtd"
   xmlns:inkscape="http://www.inkscape.org/namespaces/inkscape"
   version="1.1"
   width="22"
   height="22"
   id="svg6190"
   inkscape:version="0.92.1 r15371"
   sodipodi:docname="dark_deletekeyframe.svg"
   inkscape:export-filename="../dark_deletekeyframe.png"
   inkscape:export-xdpi="90"
   inkscape:export-ydpi="90">
  <sodipodi:namedview
     pagecolor="#ffffff"
     bordercolor="#666666"
     borderopacity="1"
     objecttolerance="10"
     gridtolerance="10"
     guidetolerance="10"
     inkscape:pageopacity="0"
     inkscape:pageshadow="2"
     inkscape:window-width="1884"
     inkscape:window-height="1051"
     id="namedview4440"
     showgrid="true"
     inkscape:zoom="22.627417"
     inkscape:cx="-1.7913351"
     inkscape:cy="7.7765962"
     inkscape:window-x="0"
     inkscape:window-y="0"
     inkscape:window-maximized="1"
     inkscape:current-layer="svg6190"
     inkscape:snap-bbox="true">
    <inkscape:grid
       type="xygrid"
       id="grid3250" />
  </sodipodi:namedview>
  <metadata
     id="metadata6196">
    <rdf:RDF>
      <cc:Work
         rdf:about="">
        <dc:format>image/svg+xml</dc:format>
        <dc:type
           rdf:resource="http://purl.org/dc/dcmitype/StillImage" />
        <dc:title></dc:title>
        <dc:date>2015</dc:date>
        <dc:creator>
          <cc:Agent>
            <dc:title>Timothée Giet</dc:title>
          </cc:Agent>
        </dc:creator>
        <cc:license
           rdf:resource="http://creativecommons.org/licenses/by-sa/4.0/" />
      </cc:Work>
      <cc:License
         rdf:about="http://creativecommons.org/licenses/by-sa/4.0/">
        <cc:permits
           rdf:resource="http://creativecommons.org/ns#Reproduction" />
        <cc:permits
           rdf:resource="http://creativecommons.org/ns#Distribution" />
        <cc:requires
           rdf:resource="http://creativecommons.org/ns#Notice" />
        <cc:requires
           rdf:resource="http://creativecommons.org/ns#Attribution" />
        <cc:permits
           rdf:resource="http://creativecommons.org/ns#DerivativeWorks" />
        <cc:requires
           rdf:resource="http://creativecommons.org/ns#ShareAlike" />
      </cc:License>
    </rdf:RDF>
  </metadata>
  <defs
     id="defs6194" />
  <path
     style="color:#000000;fill:#373737;fill-opacity:1;fill-rule:nonzero;stroke:none;stroke-width:1;marker:none;visibility:visible;display:inline;overflow:visible;enable-background:accumulate"
     d="M 2 4 L 2 6 L 2 17 L 4 17 L 4.375 17 L 5.75 15 L 5 15 L 5 6 L 11.9375 6 L 13.3125 4 L 4 4 L 2 4 z M 17.3125 4 L 15.9375 6 L 17 6 L 17 15 L 9.75 15 L 8.375 17 L 20 17 L 20 15 L 20 6 L 20 4 L 18 4 L 17.3125 4 z M 3 5 L 4 5 L 4 6 L 3 6 L 3 5 z M 17.96875 5 L 18.96875 5 L 18.96875 6 L 17.96875 6 L 17.96875 5 z M 3 7 L 4 7 L 4 8 L 3 8 L 3 7 z M 17.96875 7 L 18.96875 7 L 18.96875 8 L 17.96875 8 L 17.96875 7 z M 3 9 L 4 9 L 4 10 L 3 10 L 3 9 z M 17.96875 9 L 18.96875 9 L 18.96875 10 L 17.96875 10 L 17.96875 9 z M 3 11 L 4 11 L 4 12 L 3 12 L 3 11 z M 17.96875 11 L 18.96875 11 L 18.96875 12 L 17.96875 12 L 17.96875 11 z M 3 13 L 4 13 L 4 14 L 3 14 L 3 13 z M 17.96875 13 L 18.96875 13 L 18.96875 14 L 17.96875 14 L 17.96875 13 z M 3 15 L 4 15 L 4 16 L 3 16 L 3 15 z M 17.96875 15 L 18.96875 15 L 18.96875 16 L 17.96875 16 L 17.96875 15 z "
     id="path6348" />
  <path
     style="color:#000000;fill:#373737;fill-opacity:1;fill-rule:nonzero;stroke:none;stroke-width:1;marker:none;visibility:visible;display:inline;overflow:visible;enable-background:accumulate"
     d="M 15.65625 2 L 4 19 L 6 19 L 17.65625 2 L 15.65625 2 z "
     id="path3370" />
</svg>

<!--Created with Inkscape (http://www.inkscape.org/)--><svg xmlns:dc="http://purl.org/dc/elements/1.1/" xmlns:cc="http://creativecommons.org/ns#" xmlns:rdf="http://www.w3.org/1999/02/22-rdf-syntax-ns#" xmlns="http://www.w3.org/2000/svg" xmlns:sodipodi="http://sodipodi.sourceforge.net/DTD/sodipodi-0.dtd" xmlns:inkscape="http://www.inkscape.org/namespaces/inkscape" version="1.1" width="22" height="22" id="svg6190" inkscape:version="0.92.1 r15371" sodipodi:docname="dark_deletekeyframe.svg" inkscape:export-filename="../dark_deletekeyframe.png" inkscape:export-xdpi="90" inkscape:export-ydpi="90"><sodipodi:namedview pagecolor="#ffffff" bordercolor="#666666" borderopacity="1" objecttolerance="10" gridtolerance="10" guidetolerance="10" inkscape:pageopacity="0" inkscape:pageshadow="2" inkscape:window-width="1884" inkscape:window-height="1051" id="namedview4440" showgrid="true" inkscape:zoom="22.627417" inkscape:cx="-1.7913351" inkscape:cy="7.7765962" inkscape:window-x="0" inkscape:window-y="0" inkscape:window-maximized="1" inkscape:current-layer="svg6190" inkscape:snap-bbox="true"><inkscape:grid type="xygrid" id="grid3250"/></sodipodi:namedview><metadata id="metadata6196"><rdf:RDF><cc:Work><dc:format>image/svg+xml</dc:format><dc:type rdf:resource="http://purl.org/dc/dcmitype/StillImage"/><dc:title/><dc:date>2015</dc:date><dc:creator><cc:Agent><dc:title>Timothée Giet</dc:title></cc:Agent></dc:creator><cc:license rdf:resource="http://creativecommons.org/licenses/by-sa/4.0/"/></cc:Work><cc:License rdf:about="http://creativecommons.org/licenses/by-sa/4.0/"><cc:permits rdf:resource="http://creativecommons.org/ns#Reproduction"/><cc:permits rdf:resource="http://creativecommons.org/ns#Distribution"/><cc:requires rdf:resource="http://creativecommons.org/ns#Notice"/><cc:requires rdf:resource="http://creativecommons.org/ns#Attribution"/><cc:permits rdf:resource="http://creativecommons.org/ns#DerivativeWorks"/><cc:requires rdf:resource="http://creativecommons.org/ns#ShareAlike"/></cc:License></rdf:RDF></metadata><path style="color:#000;fill:#373737;fill-opacity:1;fill-rule:nonzero;stroke:none;stroke-width:1;marker:none;visibility:visible;display:inline;overflow:visible;enable-background:accumulate" d="M2 4v13h2.375l1.375-2H5V6h6.938l1.374-2H2zm15.313 0-1.375 2H17v9H9.75l-1.375 2H20V4H17.312zM3 5h1v1H3V5zm14.969 0h1v1h-1V5zM3 7h1v1H3V7zm14.969 0h1v1h-1V7zM3 9h1v1H3V9zm14.969 0h1v1h-1V9zM3 11h1v1H3v-1zm14.969 0h1v1h-1v-1zM3 13h1v1H3v-1zm14.969 0h1v1h-1v-1zM3 15h1v1H3v-1zm14.969 0h1v1h-1v-1z" id="path6348"/><path style="color:#000;fill:#373737;fill-opacity:1;fill-rule:nonzero;stroke:none;stroke-width:1;marker:none;visibility:visible;display:inline;overflow:visible;enable-background:accumulate" d="M15.656 2 4 19h2L17.656 2h-2z" id="path3370"/></svg>
